X:101
T: Der Elsberger
N: Q0059
O: Suedosteuropa, Jugoslawien, Gottschee, Buehel
N: Grundton in der zweigestrichenen Oktave; Schlusspause ergaenzt.
R: Ballade, Betrug, Entfuehrung
M: 2/4
L: 1/8
K: C
G,2 | C2G2 | F2GF | (3EDCE2- | E2
ED | C2ED | C2D2 | CB,C2 | z2

@@@ Tune index: 977
